src/Assets/icons/iconmonstr-gear-thin.svg

<svg width="24" height="24" xmlns="http://www.w3.org/2000/svg" fill-rule="evenodd" clip-rule="evenodd"><path d="M12 8.666c-1.838 0-3.333 1.496-3.333 3.334s1.495 3.333 3.333 3.333 3.333-1.495 3.333-3.333-1.495-3.334-3.333-3.334m0 7.667c-2.39 0-4.333-1.943-4.333-4.333s1.943-4.334 4.333-4.334 4.333 1.944 4.333 4.334c0 2.39-1.943 4.333-4.333 4.333m-1.193 6.667h2.386c.379-1.104.668-2.451 2.107-3.05 1.496-.617 2.666.196 3.635.672l1.686-1.688c-.508-1.047-1.266-2.199-.669-3.641.567-1.369 1.739-1.663 3.048-2.099v-2.388c-1.235-.421-2.471-.708-3.047-2.098-.572-1.38.057-2.395.669-3.643l-1.687-1.686c-1.117.547-2.221 1.257-3.642.668-1.374-.571-1.656-1.734-2.1-3.047h-2.386c-.424 1.231-.704 2.468-2.099 3.046-.365.153-.718.226-1.077.226-.843 0-1.539-.392-2.566-.893l-1.687 1.686c.574 1.175 1.251 2.237.669 3.643-.571 1.375-1.734 1.654-3.047 2.098v2.388c1.226.418 2.468.705 3.047 2.098.581 1.403-.075 2.432-.669 3.643l1.687 1.687c1.45-.725 2.355-1.204 3.642-.669 1.378.572 1.655 1.738 2.1 3.047m3.094 1h-3.803c-.681-1.918-.785-2.713-1.773-3.123-1.005-.419-1.731.132-3.466.952l-2.689-2.689c.873-1.837 1.367-2.465.953-3.465-.412-.991-1.192-1.087-3.123-1.773v-3.804c1.906-.678 2.712-.782 3.123-1.773.411-.991-.071-1.613-.953-3.466l2.689-2.688c1.741.828 2.466 1.365 3.465.953.992-.412 1.082-1.185 1.775-3.124h3.802c.682 1.918.788 2.714 1.774 3.123 1.001.416 1.709-.119 3.467-.952l2.687 2.688c-.878 1.847-1.361 2.477-.952 3.465.411.992 1.192 1.087 3.123 1.774v3.805c-1.906.677-2.713.782-3.124 1.773-.403.975.044 1.561.954 3.464l-2.688 2.689c-1.728-.82-2.467-1.37-3.456-.955-.988.41-1.08 1.146-1.785 3.126"/></svg>

<svg xmlns="http://www.w3.org/2000/svg" width="24.4" height="24.4" viewBox="0 0 24.4 24.4">
  <path id="iconmonstr-gear-thin" d="M12,8.666A3.333,3.333,0,1,0,15.333,12,3.337,3.337,0,0,0,12,8.666m0,7.667A4.333,4.333,0,1,1,16.333,12,4.337,4.337,0,0,1,12,16.333M10.807,23h2.386c.379-1.1.668-2.451,2.107-3.05,1.5-.617,2.666.2,3.635.672l1.686-1.688c-.508-1.047-1.266-2.2-.669-3.641.567-1.369,1.739-1.663,3.048-2.1V10.806c-1.235-.421-2.471-.708-3.047-2.1s.057-2.4.669-3.643L18.935,3.379c-1.117.547-2.221,1.257-3.642.668-1.374-.571-1.656-1.734-2.1-3.047H10.807c-.424,1.231-.7,2.468-2.1,3.046a2.744,2.744,0,0,1-1.077.226,5.989,5.989,0,0,1-2.566-.893L3.378,5.065C3.952,6.24,4.629,7.3,4.047,8.708c-.571,1.375-1.734,1.654-3.047,2.1v2.388c1.226.418,2.468.7,3.047,2.1s-.075,2.432-.669,3.643l1.687,1.687c1.45-.725,2.355-1.2,3.642-.669,1.378.572,1.655,1.738,2.1,3.047M13.9,24H10.1c-.681-1.918-.785-2.713-1.773-3.123-1-.419-1.731.132-3.466.952L2.17,19.14c.873-1.837,1.367-2.465.953-3.465S1.931,14.588,0,13.9V10.1c1.906-.678,2.712-.782,3.123-1.773S3.052,6.712,2.17,4.859L4.859,2.171C6.6,3,7.325,3.536,8.324,3.124S9.406,1.939,10.1,0h3.8c.682,1.918.788,2.714,1.774,3.123S17.384,3,19.142,2.171l2.687,2.688c-.878,1.847-1.361,2.477-.952,3.465S22.069,9.411,24,10.1v3.8c-1.906.677-2.713.782-3.124,1.773-.4.975.044,1.561.954,3.464l-2.688,2.689c-1.728-.82-2.467-1.37-3.456-.955S14.606,22.02,13.9,24" transform="translate(0.2 0.2)" fill="#fff" stroke="#fff" stroke-width="0.4" fill-rule="evenodd"/>
</svg>
